X: 35
T:Birds are singing sweet my Love,The. CJF.035
T:No. 5. CJF.035
M:6/8
L:1/8
Q:110
C:J Braham
S:C.J.Fox MS, 1829/33, Beverley,E.Yorks.
R:Q'Step
O:England
A:East Yorkshire
B:Kidson Coll.Mitchell Lib.M1805
Z:vmp.P J Headford 2000
K:A
"$ p"e|a2aa2a|a2AA2e|b2bb2b|b3-b2e|!
(c'2b) (bag)|(gfe) (edc)|Bfe dcB|Acd efg|!
"ff"a2aa2a|a2AA2e|b2bb2b|b3-b2e|!
(c'2b) (bag)|(gfe) (edc)|Bfe dcB|AceH"H"a2||!
c|f2ga2^e|f2aa2^a|bge Bc^d|egf egb|!
d'3 c'd'c'|b3aba|gab agf|e3z2d|!
c2aa2^d|e3-e2e|agb ac^d|(f3e2)e|!
d'e'd' c'd'c'|bc'b aba|gab agf|fe^d e"$ D C"fg|]
